X: 3343
M: C
L: 1/8
K: G
d2 |\
g>fg>f a>gf>e | d>Bc>d e>fa>g |\
g>fg>f a>gf>e |
d>Bc>d e>fa>g |\
|: d2 |\
f>af>d e>ge>^c | d>^cd>e f>de>f |\
g>fg>f a>gf>e | d>Bc>d e>fa>g |\


